!!!!SEGMENT: pl-kk--kk-i-382--026-001-pc0_singenberger-johann-baptist--msza-na-3-glosy-kyrie-pc0.krn
!!!cenid: 18xx:1528a
!!!COM: Singenberger, Johann Baptist
!!!COM-rismID: pe30008527
!!!CDT: 1848-1924
!!!CNT:
!!!OPR: Msza na 3 głosy
!!!OTL: Kyrie
!!!OMV: 001
!!!PDT:
!!!AGN: Sacred; Mass
!!!YEC: Copyright 2022 Narodowy Instytut Fryderyka Chopina (https://polishscores.org)
!!!YEM: License CC-BY-4.0 (https://creativecommons.org/licenses/by/4.0)
!!!SMS-siglum: PL-Kk
!!!SMS-shelfmark: Kk.I.382
!!!SMS-shelfwork: 026-001 M
!!!SMS-variant:
!!!SMS-altvar:
!!!NIFC-rismSourceID: 1001139027
!!!NIFC-rismChildID: 1001140188
!!!NIFC-islandoraID: pl-kk:6162
!!!URL-pdf-islandora: https://repozytorium.nifc.pl/islandora/object/pl-kk%3A6162/datastream/PDF/view
!!!URL-scan: https://polish.musicsources.pl/pl/lokalizacje/galeria/rekopisy/5994 @EN{Scan on Polish Music Sources Website} @PL{Skany w portalu Dziedzictwo Muzyki Polskiej w otwartym dostępie}
!!!IIIF:
!!!ONB-nifc: UWAGA: obsada: S (T 1) (skany 0033-0034), T 2 (skany 0110-0111), B 2 (skany 0254-0255). Osobne części Mszy: Kyrie, Gloria, Sanctus, Benedictus, Agnus
!!!AIN: 1 bass 2 tenor
!!!key:
**kern	**text	**kern	**text	**kern	**text	**dynam
*part3	*	*part2	*	*part1	*	*
*staff3	*	*staff2	*	*staff1	*	*
*Ibass	*	*Itenor	*	*Itenor	*	*
*I"Basso II	*	*I"Tenore II	*	*I"Soprano vel Tenore I.	*	*
*I'B 2	*	*I'T 2	*	*I'S (T 1)	*	*
*clefF4	*	*clefG2	*	*clefG2	*	*
*k[b-]	*	*k[b-]	*	*k[b-]	*	*
*F:	*	*F:	*	*F:	*	*
*M4/4	*	*M4/4	*	*M4/4	*	*
*met(c)	*	*met(c)	*	*met(c)	*	*
=1	=1	=1	=1	=1	=1	=1
*2\right	*	*	*	*2\right	*	*
!LO:TX:a:t=P:all\right:problem	!	!	!	!LO:TX:a:t=P:all\right:problem	!	!
!LO:TX:a:t=P:2/left:problem	!	!LO:TX:a:t=P:2/left:problem	!	!LO:TX:a:t=P:2/left:problem	!	!
!LO:TX:a:i:t=Msza na 3 głosy \nna cześć Stego Aloysego p. J. Singenberger	!	!LO:TX:a:i:t=Msza na 3 głosy \nna cześć Stego Aloysego p. J. Singenberger	!	!LO:TX:a:i:t=Msza na 3 głosy \nna cześć Stego Aloiysego\np. J. Singenberg	!	!
!LO:TX:a:t=P:problem=w źródle "Kyrie" zapisane przed pierwszym taktem, na pięciolinii	!	!LO:TX:a:t=P:problem=w źródle "Kyrie" zapisane przed pierwszym taktem, na pięciolinii	!	!	!	!
!LO:TX:a:i:t=Kyrie	!	!LO:TX:a:i:t=Kyrie	!	!	!	!
4F\	Ky-	4f/	Ky-	4f/	Ky-	.
4C/	-ri-	4e/	-ri-	4g/	-ri-	.
4F\	-e	4f/	-e	4a/	-e	.
4A\	e-	4f/	e-	4cc\	e-	.
=2	=2	=2	=2	=2	=2	=2
4B-\	-le-	4d/	-le-	4b-\	-le-	.
4F\	-i-	4f/	-i-	4a/	-i-	.
!LO:TX:t=P:problem=w półnutach z caudami do góry, są one po lewej stronie. A z caudami do dołu są po prawej	!	!LO:TX:t=P:problem=w półnutach z caudami do góry, są one po lewej stronie. A z caudami do dołu są po prawej	!	!LO:TX:t=P:problem=w półnutach z caudami do góry, są one po lewej stronie. A z caudami do dołu są po prawej	!	!
2c\	-son	2e/	-son	2g/	-son	.
=3	=3	=3	=3	=3	=3	=3
4F\	Ky-	4f/	Ky-	4a/	Ky-	.
4B-\	-ri-	4d/	-ri-	4f/	-ri-	.
4G\	-e	4e/	-e	4b-\	-e	.
4F\	e-	4f/	e-	4a/	e-	.
=4	=4	=4	=4	=4	=4	=4
2c\	-lei-	2f/	-lei-	2a/	-lei-	.
2C/	-son	2e/	-son,	2g/	-son	.
=5	=5	=5	=5	=5	=5	=5
4F\	Ky-	4f/	Ky-	4a/	Ky-	.
4G\	-ri-	4f/	-ri-	4bn\	-ri-	.
!	!	!LO:LB:g=original	!	!	!	!
4A\	-e	4e/	-e	4cc\	-e	.
4D\	e-	4f/	e-	4dd\	e-	.
!LO:LB:g=original	!	!	!	!LO:LB:g=original	!	!
=6	=6	=6	=6	=6	=6	=6
2G\	-lei-	4f/	-lei-	2bn\	-lei-	.
.	.	8e/L	.	.	.	.
.	.	8d/J	.	.	.	.
!LO:TX:a:t=wolniej	!	!LO:TX:a:t=wolniej	!	!LO:TX:a:t=wolniej	!	!
2C/	-son	2e/	-son	2cc\	-son	.
=7||	=7||	=7||	=7||	=7||	=7||	=7||
!	!	!	!	!	!	!LO:DY:rj
!	!	!	!	!	!	!LO:DY:b
2D\	Chri-	2d/	Chri-	2f/	Chri-	p
4AA/	-ste	4c#X/	-ste	4e/	-ste	.
4D\	e-	4d/	e-	4f/	e-	.
=8	=8	=8	=8	=8	=8	=8
4C/	-lei-	4e/	-lei-	4g/	-lei-	.
4F\	.	4f/	.	4a/	.	.
2c\	-son	2e/	-son	2g/	-son	.
=9	=9	=9	=9	=9	=9	=9
2F\	Chri-	2f/	Chri-	2a/	Chri-	.
4B-\	-ste	4d/	-ste	4f/	-ste	.
4G\	e-	4e/	e-	4g/	e-	.
=10	=10	=10	=10	=10	=10	=10
4F\	-lei-	4f/	-lei-	4a/	-lei-	.
4G\	.	8d/L	.	4b-\	.	.
.	.	8e/J	.	.	.	.
2F\	-son	2f/	-son	2a/	-son	.
!	!	!LO:LB:g=original	!	!	!	!
=11	=11	=11	=11	=11	=11	=11
2A\	Chri-	(<4f/	Chri-	2cc\	Chri-	.
.	.	4e/)	.	.	.	.
4B-\	-ste	4d/	-ste	4b-\	-ste	.
4F\	e-	4c/	e-	4a/	e-	.
=12	=12	=12	=12	=12	=12	=12
2c\	-lei-	4c/	-lei-	2a/	-lei-	.
.	.	4f/	.	.	.	.
2C/	-son	2e/	-son,	2g/	-son	.
!LO:LB:g=original	!	!	!	!LO:LB:g=original	!	!
=13||	=13||	=13||	=13||	=13||	=13||	=13||
!	!	!	!	!LO:TX:a:t=jak z początku	!	!
4F\	Ky-	4f/	Ky-	4f/	Ky-	.
4C/	-ri-	4e/	-ri-	4g/	-ri-	.
4F\	-e	4f/	-e	4a/	-e	.
4A\	e-	4c/	e-	4cc\	e-	.
=14	=14	=14	=14	=14	=14	=14
4G\	-le-	8d/L	-le-	4b-\	-le-	.
.	.	8e/J	.	.	.	.
4F\	-i-	4f/	-i-	4a/	-i-	.
2c\	-son,	2e/	-son	2g/	-son,	.
=15	=15	=15	=15	=15	=15	=15
4F\	Ky-	4f/	Ky-	4a/	Ky-	.
4B-\	-ri-	4d/	-ri-	4f/	-ri-	.
4G\	-e	4e/	-e	4b-\	-e	.
4F\	e-	4f/	e-	4a/	e-	.
=16	=16	=16	=16	=16	=16	=16
2c\	-lei-	2f/	-lei-	2a/	-lei-	.
2C/	-son	2e/	-son	2g/	-son	.
!	!	!LO:LB:g=original	!	!	!	!
=17	=17	=17	=17	=17	=17	=17
4F\	Ky-	4f/	Ky-	4a/	Ky-	.
4G\	-ri-	8e/L	-ri-	4b-\	-ri-	.
.	.	8d/J	.	.	.	.
4A\	-e	4c/	-e	4cc\	-e	.
4B-\	e-	4d/	e-	4f/	e-	.
=18	=18	=18	=18	=18	=18	=18
4c\	-le-	4f/	-le-	4a/	-le-	.
4C/	-i-	4e/	-i-	4g/	-i-	.
2F\	-son	2f/	-son	2f;>/	-son	.
==	==	==	==	==	==	==
*-	*-	*-	*-	*-	*-	*-
!!!system-decoration: [(s1,s2,s3)]
!!!RDF**kern: > = above
!!!RDF**kern: < = below
!!!EED: Antoni Szymański
!!!EEV: 2021-02-08
!!!ENC: Andrzej Gręziak
!!!END: 2021-01-29
